X:1
T:Up in the Morning Early [1]
M:6/8
L:1/8
R:Jig
Q:"Andante"
N:”Bowing and fingering arranged by W.B. Laybourn”
B:Köhlers’ Violin Repository, Book 3 (1885, p. 193)
Z:AK/Fiddler’s Companion=
K:Gmin
(D/4=E/4^F/)|G>AG (B>c B/4c/4d/)|FcF (d/c/B/A/G/^F/)|G>AG (B/c/4d/4c/B/A/B/)|
{A}(G2 B/c/) d2:||(F/4G/4A/)|(B>cB/c/) (B>AB/F)|c>dc c(d/c/B/A/)|
(G2 B/c/)d2::(D/4=E/4^F/)|(G/^F/)G/A/B/G/ (B/A/)B/c/d/B/|
(c/B/A/)=e/f/d/ (d/c/)B/A/G/^F/|Ggf (d/>e/d/c/B/A/)|(G2 B/c/)d2:|
|:(F/E/)|(D/B/)B,/D/B/c/ (B/A/)G/A/B/G/|cC(c c/)(d/c/B/c/A/)|B(F{GF}E) D(f/e/d/c/)|
(d^c/d/)f2 (F/4G/4A/)|B(DB,) (c>{dc}B)c|dg^f {=ef}(g>a{ga}b)|
(d/e/d/c/d/B/) (A/B/4c/B/A/G/^F/)|(G2 B/c/)d2||D/4=E/4^F/|G(D/C/B,/)A,/ G, (B/>c/ B/c/d/)|Ffd (d/c/B/A/G/^F/)|(Ggf (d/>e/d/c/B/A/)|G(D/C/B,/)A,/ G,2:|
|:(F/4G/4A/)|B/A/G/A/B- B(A/G/A/B/)|cfd (d/c/B/A/G/F/)|(B/f/g/a/b/g/) (f/e/d/c/d/B/)|
(d/f/)b/d/c/B/ (A/c/F/B/A/B/4c/4)|(.BA/4G/4 F/E/D/C/ B,/4B/4A/4G/4) cCc|
d/^F/D/g/f/(=e/4f/4)(g>a{ga}b)|(d/f/b/d/c/B/) (A/c/f/c/B/A/)|(G2 B/c/)d2:|
|:D/4=E/4^F/|.G2.G B>cd|Ffd ((3d/c/B/A/G/^F/)|Ggf (d/>e/d/c/B/A/)|(GB/c/)d2:|
|:(F/4G/4A/)|BB,B- B/(A/G/A/B/G/)|cC(c c/)(d/c/B/c/A/)|B(FE) D(f/e/d/c/)|
(d^c/d/) f2F|BB,B cCc|dD^f (g>a g/4a/4b/)|(d/>c/B/c/4d/4c/>B/) (c/>B/A/B/4c/4/B/>A/)|(G2 B/c/) d2"Fine"||

